icons/Finance/swap-line.svg

<svg viewBox="0 0 24 24" xmlns="http://www.w3.org/2000/svg"><path d="M12.0049 22.0029C6.48204 22.0029 2.00488 17.5258 2.00488 12.0029C2.00488 6.48008 6.48204 2.00293 12.0049 2.00293C17.5277 2.00293 22.0049 6.48008 22.0049 12.0029C22.0049 17.5258 17.5277 22.0029 12.0049 22.0029ZM12.0049 20.0029C16.4232 20.0029 20.0049 16.4212 20.0049 12.0029C20.0049 7.58465 16.4232 4.00293 12.0049 4.00293C7.5866 4.00293 4.00488 7.58465 4.00488 12.0029C4.00488 16.4212 7.5866 20.0029 12.0049 20.0029ZM7.00488 9.00293L10.0049 5.50293L13.0049 9.00293H11.0049V13.0029H9.00488V9.00293H7.00488ZM17.0049 15.0029L14.0049 18.5029L11.0049 15.0029H13.0049V11.0029H15.0049V15.0029H17.0049Z"/></svg>

<svg xmlns="http://www.w3.org/2000/svg" viewBox="0 0 24 24">
    <g>
        <path fill="none" d="M0 0h24v24H0z"/>
        <path d="M12 22C6.477 22 2 17.523 2 12S6.477 2 12 2s10 4.477 10 10-4.477 10-10 10zm0-2a8 8 0 1 0 0-16 8 8 0 0 0 0 16zM7 9l3-3.5L13 9h-2v4H9V9H7zm10 6l-3 3.5-3-3.5h2v-4h2v4h2z"/>
    </g>
</svg>
